gtk/src/default/unity/unmaximize_dash.svg

<svg width="24" height="24" version="1.1" viewBox="0 0 6.35 6.35" xmlns="http://www.w3.org/2000/svg">
 <g transform="translate(0 -290.91)">
  <circle cx="3.175" cy="294.09" r="2.6458" fill="none" stroke-width=".66123"/>
  <path transform="matrix(.26458 0 0 .26458 0 290.91)" d="m8 10v1 4 1h6v-1-4-1h-6zm1 1h4v4h-4v-4z" fill="#fff" stroke-width=".57736"/>
  <g transform="matrix(1 0 0 .99532 -3.8027e-6 2.6959)">
   <g transform="matrix(-.70711 -.35522 .70711 -.35522 -202.55 398.13)">
    <path transform="matrix(-.18709 .18709 -.37417 -.37417 9.5751 296.02)" d="m10 8v1h5v5h1v-5-1h-6z" fill="#fff" opacity=".5" stroke-width=".52705"/>
   </g>
  </g>
 </g>
</svg>

<?xml version="1.0" encoding="UTF-8" standalone="no"?>
<svg
   xmlns:dc="http://purl.org/dc/elements/1.1/"
   xmlns:cc="http://creativecommons.org/ns#"
   xmlns:rdf="http://www.w3.org/1999/02/22-rdf-syntax-ns#"
   xmlns:svg="http://www.w3.org/2000/svg"
   xmlns="http://www.w3.org/2000/svg"
   xmlns:sodipodi="http://sodipodi.sourceforge.net/DTD/sodipodi-0.dtd"
   xmlns:inkscape="http://www.inkscape.org/namespaces/inkscape"
   width="24"
   height="24"
   version="1.1"
   viewBox="0 0 6.35 6.3499636"
   id="svg5275"
   sodipodi:docname="unmaximize_dash.svg"
   inkscape:version="1.0.2 (e86c870879, 2021-01-15)">
  <metadata
     id="metadata5281">
    <rdf:RDF>
      <cc:Work
         rdf:about="">
        <dc:format>image/svg+xml</dc:format>
        <dc:type
           rdf:resource="http://purl.org/dc/dcmitype/StillImage" />
        <dc:title></dc:title>
      </cc:Work>
    </rdf:RDF>
  </metadata>
  <defs
     id="defs5279" />
  <sodipodi:namedview
     pagecolor="#ffffff"
     bordercolor="#666666"
     borderopacity="1"
     objecttolerance="10"
     gridtolerance="10"
     guidetolerance="10"
     inkscape:pageopacity="0"
     inkscape:pageshadow="2"
     inkscape:window-width="1301"
     inkscape:window-height="744"
     id="namedview5277"
     showgrid="true"
     inkscape:zoom="32"
     inkscape:cx="14.9944"
     inkscape:cy="12.552296"
     inkscape:window-x="65"
     inkscape:window-y="24"
     inkscape:window-maximized="1"
     inkscape:current-layer="g5273"
     inkscape:document-rotation="0">
    <inkscape:grid
       type="xygrid"
       id="grid5826" />
  </sodipodi:namedview>
  <g
     transform="translate(0,-290.91498)"
     id="g5273">
    <circle
       cx="3.175"
       cy="294.09"
       r="2.6458001"
       id="circle5255"
       style="fill:none;stroke-width:0.66123003;fill-opacity:1" />
    <g
       transform="matrix(0.4242659,-0.70711,0.4242659,0.70711,-123.09786,88.36736)"
       id="bottom"
       inkscape:label="bottom" />
    <g
       id="g303">
      <path
         id="rect5257"
         style="fill:#ffffff;fill-opacity:1;stroke-width:0.577356"
         d="M 8 10 L 8 11 L 8 15 L 8 16 L 14 16 L 14 15 L 14 11 L 14 10 L 8 10 z M 9 11 L 13 11 L 13 15 L 9 15 L 9 11 z "
         transform="matrix(0.26458333,0,0,0.26458333,0,290.91496)" />
      <g
         transform="matrix(-0.70712378,-0.28341845,0.70712378,-0.28341845,-203.0808,378.52763)"
         id="g5263" />
      <g
         transform="matrix(-0.70711,-0.28284658,0.70711,-0.28284658,-204.39968,378.36085)"
         id="g5267" />
      <g
         transform="matrix(0.4242694,-0.70711,0.4242694,0.70711,-123.08922,87.038233)"
         id="g5271" />
      <g
         id="right-edge"
         transform="matrix(1,0,0,0.99531863,-3.8027428e-6,2.6959391)"
         inkscape:label="right-edge">
        <g
           transform="matrix(-0.70710999,-0.35522075,0.70710999,-0.35522075,-202.5476,398.12812)"
           id="g5263-3">
          <rect
             transform="rotate(-45)"
             x="-206.78"
             y="208.67967"
             width="0.26458001"
             height="2.6458001"
             id="rect5261-6"
             style="fill:#a3a3a3;stroke-width:0.19721" />
        </g>
      </g>
      <g
         transform="matrix(0.4242694,-0.70710999,0.4242694,0.70710999,-122.56004,86.509064)"
         id="top-edge"
         inkscape:label="top-edge">
        <rect
           transform="rotate(-45)"
           x="-206.78621"
           y="208.67384"
           width="0.26458001"
           height="2.6458001"
           id="rect5269-5"
           style="fill:#a3a3a3;stroke-width:0.19721" />
      </g>
    </g>
  </g>
</svg>
